X:3518
T:Craig's Pipes
T:Greig's Pipes
R:reel
Z:id:hn-reel-191
M:C|
K:G
~B3A BAGA|B2GB AGEG|1 ~B3A BAGB|cABG AGEG:|2 Bd~d2 eBdB|AcBG AGEG||
DG~G2 DGBG|DGBG AGEG|DGGF GABc|d2BG ABGE|
DG~G2 AGBG|DGBG AGEG|DGGF GABc|dBAc BG~G2||
|:d2 (3Bcd edge|dGBG AGEG|d2 (3Bcd eg~g2|1 agbg ageg:|2 ~a3b aged||
"Variations:"
~B3A BAGA|B2GB AGED|1 ~B3A BAGB|A2BG AGED:|2 Bded BcdB|AcBG AGEG||
DG~G2 DGBG|DGBG AGEG|DGGF ~G3B|dGBG ABGE|
DG~G2 AGBG|dGBG AGBG|DGGF ~G3B|dBAc BG~G2||
|:d2 (3Bcd egge|dGBG AGEG|d2 (3Bcd eg~g2|1 agbg ageg:|2 ~a3b aged||


